img/mainmenu/filter.svg

<?xml version="1.0" encoding="UTF-8" standalone="no"?>
<svg
   width="512"
   height="512"
   viewBox="0 0 512 512"
   fill="none"
   version="1.1"
   id="svg4"
   sodipodi:docname="filter.svg"
   inkscape:version="1.2.1 (9c6d41e410, 2022-07-14)"
   xmlns:inkscape="http://www.inkscape.org/namespaces/inkscape"
   xmlns:sodipodi="http://sodipodi.sourceforge.net/DTD/sodipodi-0.dtd"
   xmlns="http://www.w3.org/2000/svg"
   xmlns:svg="http://www.w3.org/2000/svg">
  <defs
     id="defs8" />
  <sodipodi:namedview
     id="namedview6"
     pagecolor="#ffffff"
     bordercolor="#666666"
     borderopacity="1.0"
     inkscape:showpageshadow="2"
     inkscape:pageopacity="0.0"
     inkscape:pagecheckerboard="0"
     inkscape:deskcolor="#d1d1d1"
     showgrid="false"
     inkscape:zoom="1.1341146"
     inkscape:cx="215.14581"
     inkscape:cy="290.09414"
     inkscape:window-width="1920"
     inkscape:window-height="1051"
     inkscape:window-x="0"
     inkscape:window-y="0"
     inkscape:window-maximized="1"
     inkscape:current-layer="svg4" />
  <path
     d="m 192.89908,468.32159 8.52036,25.57225 v 0 z m 134.72195,-44.92326 8.51983,25.57223 v -0.003 z m 136.04251,-291.68335 19.0524,19.06017 z M 344.72535,250.70017 325.67296,231.64025 Z M 67.388891,69.910063 H 444.61111 V 16 H 67.388891 Z m 0,42.745027 V 69.910063 H 13.5 V 112.65509 Z M 186.32732,231.64025 67.388891,112.65509 29.283786,150.77515 148.22196,269.76005 Z m -38.10536,38.1198 v 185.77677 h 53.88888 V 269.76005 Z m 0,185.77677 c 0,27.59658 27.02661,47.08506 53.19748,38.35702 l -17.041,-51.14178 c 8.72379,-2.91115 17.7324,3.585 17.7324,12.78476 z m 53.19748,38.35702 134.72142,-44.92328 -17.03966,-51.14447 -134.72276,44.92597 z m 134.72142,-44.92596 c 16.50347,-5.50151 27.63693,-20.95214 27.63693,-38.35702 H 309.8889 c 0,-5.8007 3.71023,-10.95182 9.2123,-12.78477 z m 27.63693,-38.35702 V 269.76005 H 309.8889 v 140.85081 z m 80.83332,-297.95577 -118.93815,118.98516 38.10483,38.1198 118.93815,-118.9849 z m 0,-42.745027 V 112.65509 H 498.5 V 69.910063 Z m 38.10483,80.865087 C 492.82282,140.66514 498.5,126.95284 498.5,112.65509 h -53.88889 z m -118.93815,118.9849 v 0 l -38.10483,-38.1198 c -10.10688,10.11083 -15.78406,23.82286 -15.78406,38.1198 z m -215.55583,0 h 53.88888 c 0,-14.29694 -5.67746,-28.00897 -15.78352,-38.1198 z M 13.5,112.65509 c 0,14.29775 5.677465,28.01005 15.783786,38.12006 l 38.105105,-38.12006 v 0 z M 444.61111,69.910063 H 498.5 C 498.5,40.136345 474.37395,16 444.61111,16 Z M 67.388891,16 C 37.626865,16 13.5,40.136345 13.5,69.910063 h 53.888891 v 0 z"
     fill="#ffffff"
     id="path2"
     style="stroke-width:26.9499" />
</svg>

<?xml version="1.0" encoding="UTF-8"?>
<svg width="512" height="512" fill="none" version="1.1" viewBox="0 0 512 512" xmlns="http://www.w3.org/2000/svg">
 <path d="m192.9 468.32 8.5204 25.572zm134.72-44.923 8.5198 25.572v-3e-3zm136.04-291.68 19.052 19.06zm-118.94 118.99-19.052-19.06zm-277.34-180.79h377.22v-53.91h-377.22zm0 42.745v-42.745h-53.889v42.745zm118.94 118.99-118.94-118.99-38.105 38.12 118.94 118.98zm-38.105 38.12v185.78h53.889v-185.78zm0 185.78c0 27.597 27.027 47.085 53.197 38.357l-17.041-51.142c8.7238-2.9112 17.732 3.585 17.732 12.785zm53.197 38.357 134.72-44.923-17.04-51.144-134.72 44.926zm134.72-44.926c16.503-5.5015 27.637-20.952 27.637-38.357h-53.889c0-5.8007 3.7102-10.952 9.2123-12.785zm27.637-38.357v-140.85h-53.889v140.85zm80.833-297.96-118.94 118.99 38.105 38.12 118.94-118.98zm0-42.745v42.745h53.889v-42.745zm38.105 80.865c10.107-10.11 15.784-23.822 15.784-38.12h-53.889zm-118.94 118.98-38.105-38.12c-10.107 10.111-15.784 23.823-15.784 38.12zm-215.56 0h53.889c0-14.297-5.6775-28.009-15.784-38.12zm-134.72-157.1c0 14.298 5.6775 28.01 15.784 38.12l38.105-38.12zm431.11-42.745h53.889c0-29.774-24.126-53.91-53.889-53.91zm-377.22-53.91c-29.762 0-53.889 24.136-53.889 53.91h53.889z" fill="#fff" stroke-width="26.95"/>
</svg>
